X: 99
T: No_59_Song_Concerning_the_Figurines.krn
N: Derived from No_59_Song_Concerning_the_Figurines.krn
%%abc-version 2.0
%%abcx-abcm2ps-target-version 5.9.1 (29 Sep 2008)
%%abc-creator hum2abc beta
%%abcx-conversion-date 2019/03/15 08:35:45
%%humdrum-veritas 1854892929
%%humdrum-veritas-data 1135159485
%%linebreak <none>
%%barnumbers 0
L: 1/8
M: 2/4
K: Db clef=bass
[K:clef=bass][M:2/4]z2z z/ D/ | 
DA, DD | 
D3A,/A,/ | 
A,4 | 
G,F, F,E, | 
E,3D,/D,/ | 
D,2z2 | 
A,A, A,A, | 
A,3A,/A,/ | 
A,4 | 
A,A, A,G, | 
G,3F,/E,/ | 
D,4 | 
D,D, D,D, | 
D,2z F,/F,/ | 
F,4 | 
F,E, E,F, | 
D,3D,/D,/ | 
D,4 | 
D,2z A,/A,/ | 
A,E, G,F, | 
D,3D,/D,/ | 
D,2z A,/A,/ | 
A,A, A,A, | 
A,3A,/A,/ | 
A,4 | 
A,A, A,G, | 
G,3F,/E,/ | 
D,4 | 
D,D, D,D, | 
D,2z F,/F,/ | 
F,4 | 
F,E, E,F, | 
D,3D,/D,/ | 
D,4 | 
D,2z2 |]  



